webapp/src/assets/icons/cloudproviders/aws/compute/ec2_instances.svg

<svg width="48" height="48" xmlns="http://www.w3.org/2000/svg"><path d="M4.131 22.96h5.855v2H4.131A2.133 2.133 0 0 1 2 22.829V4.131C2 2.956 2.956 2 4.131 2h18.698c1.175 0 2.131.956 2.131 2.131v6.729h-2V4.131A.13.13 0 0 0 22.829 4H4.131A.131.131 0 0 0 4 4.131v18.698c0 .072.059.131.131.131Zm9.606 10.48h7.542v2h-7.542a2.133 2.133 0 0 1-2.13-2.13v-18.7c0-1.174.956-2.13 2.13-2.13h18.699c1.174 0 2.131.956 2.131 2.13v6.73h-2v-6.73a.13.13 0 0 0-.131-.13H13.737a.13.13 0 0 0-.13.13v18.7c0 .072.058.13.13.13ZM43.85 43.92l-18.89-.07V25.091c0-.072.059-.131.131-.131h18.698c.072 0 .131.059.131.131l-.07 18.829Zm-.061-20.96H25.091a2.133 2.133 0 0 0-2.131 2.131V43.85c0 1.141.929 2.07 2.07 2.07h18.82c1.141 0 2.07-.929 2.07-2.07V25.091a2.133 2.133 0 0 0-2.131-2.131Z" fill="#ED7100" fill-rule="evenodd"/></svg>

<?xml version="1.0" encoding="UTF-8"?>
<svg width="48px" height="48px" viewBox="0 0 48 48" version="1.1" xmlns="http://www.w3.org/2000/svg" xmlns:xlink="http://www.w3.org/1999/xlink">
    <title>Icon-Resource/Compute/Res_Amazon-EC2_Instances_48</title>
    <g id="Icon-Resource/Compute/Res_Amazon-EC2_Instances_48" stroke="none" stroke-width="1" fill="none" fill-rule="evenodd">
        <path d="M4.131,22.96 L9.986,22.96 L9.986,24.96 L4.131,24.96 C2.956,24.96 2,24.004 2,22.829 L2,4.131 C2,2.956 2.956,2 4.131,2 L22.829,2 C24.004,2 24.96,2.956 24.96,4.131 L24.96,10.86 L22.96,10.86 L22.96,4.131 C22.96,4.059 22.902,4 22.829,4 L4.131,4 C4.059,4 4,4.059 4,4.131 L4,22.829 C4,22.901 4.059,22.96 4.131,22.96 L4.131,22.96 Z M13.737,33.44 L21.279,33.44 L21.279,35.44 L13.737,35.44 C12.563,35.44 11.607,34.484 11.607,33.31 L11.607,14.61 C11.607,13.436 12.563,12.48 13.737,12.48 L32.436,12.48 C33.61,12.48 34.567,13.436 34.567,14.61 L34.567,21.34 L32.567,21.34 L32.567,14.61 C32.567,14.538 32.508,14.48 32.436,14.48 L13.737,14.48 C13.665,14.48 13.607,14.538 13.607,14.61 L13.607,33.31 C13.607,33.382 13.665,33.44 13.737,33.44 L13.737,33.44 Z M43.85,43.92 L24.96,43.85 L24.96,25.091 C24.96,25.019 25.019,24.96 25.091,24.96 L43.789,24.96 C43.861,24.96 43.92,25.019 43.92,25.091 L43.85,43.92 Z M43.789,22.96 L25.091,22.96 C23.916,22.96 22.96,23.916 22.96,25.091 L22.96,43.85 C22.96,44.991 23.889,45.92 25.03,45.92 L43.85,45.92 C44.991,45.92 45.92,44.991 45.92,43.85 L45.92,25.091 C45.92,23.916 44.964,22.96 43.789,22.96 L43.789,22.96 Z" id="Amazon-EC2-Instances_Resource-Icon_light-bg" fill="#ED7100"></path>
    </g>
</svg>
